img/general/logos/cadillac_logo_black.svg

<svg width="65" height="61" viewBox="0 0 65 61" fill="none" xmlns="http://www.w3.org/2000/svg">
<path d="M22.1315 0.377518C17.8158 1.26751 12.9883 3.5467 9.69743 6.23054C4.84283 10.1951 1.32256 16.9653 0.230238 24.4224C-0.0527593 26.3782 -0.0798689 30.7072 0.17668 32.5275C1.07989 38.9604 4.43817 45.3258 9.57643 50.3424C13.2851 53.9434 17.0342 56.3165 20.7561 57.3955C22.9137 58.029 32.1653 60.4702 32.4212 60.4702C32.8933 60.4834 44.3289 57.3956 45.7181 56.8692C48.6578 55.7637 52.1371 53.3761 55.266 50.3424C59.6213 46.0942 62.6424 41.0101 63.9913 35.6834C65.0565 31.4352 65.0697 26.2969 64.0177 21.6043C63.0874 17.4374 61.1454 13.162 58.7181 9.93926C54.9691 4.963 48.5501 1.26816 41.7667 0.161961L40.7961 -3.43323e-05L40.041 0.579845C39.6231 0.889954 39.3394 1.18684 39.3936 1.24039C39.4479 1.29462 39.8386 1.45595 40.2433 1.57761C41.5512 2.00938 44.114 3.20948 45.8127 4.20724C52.2859 7.98341 56.7087 13.4582 58.5839 19.9718C60.3368 26.0404 59.8514 31.8934 57.1676 37.2472C53.1488 45.2584 44.518 51.3673 35.5229 52.5674C30.6816 53.2147 25.7727 52.3247 20.891 49.9246C12.6649 45.8786 6.90647 38.6906 5.51727 30.7072C4.43817 24.4634 6.23203 17.3964 10.3183 11.8945C11.3564 10.492 13.6495 8.11829 15.0922 6.9453C17.6412 4.88233 21.2283 2.83192 24.1277 1.76672C24.8021 1.52405 25.3952 1.28139 25.4494 1.24105C25.5711 1.13328 24.1415 0.0270767 23.8982 0.0409622C23.8037 0.0402985 23.0082 0.189075 22.1315 0.377518Z" fill="black"/>
<path d="M21.5245 14.9288C15.7257 15.6164 10.9246 16.2102 10.8711 16.2366C10.8036 16.2637 11.5052 17.6529 12.4223 19.3384L14.0945 22.3997L14.6876 28.6435C15.0116 32.0825 15.3481 35.2246 15.4427 35.6292C15.8202 37.4634 17.0203 39.2434 18.2878 39.8907C19.7174 40.6187 24.734 42.3048 30.263 43.9095C31.1933 44.1932 32.0833 44.4762 32.2592 44.5569C32.4747 44.6646 32.6367 44.6646 32.8662 44.5569C33.0282 44.4762 34.619 43.977 36.3997 43.4513C40.5805 42.2109 44.4777 40.9024 46.0553 40.2286C48.0647 39.3657 49.0625 38.1114 49.6159 35.7509C49.7376 35.2788 50.1012 32.0832 50.4252 28.6442L51.0183 22.4004L52.6905 19.339C53.6076 17.6536 54.3495 16.2644 54.3356 16.2505C54.2953 16.1963 32.6103 13.648 32.3266 13.6612C32.1917 13.6744 27.3371 14.2411 21.5245 14.9288ZM50.4517 17.9227C50.4114 17.9901 49.8989 18.8934 49.2919 19.9592L48.1996 21.888V28.6707C48.1996 36.3169 48.1996 36.2633 47.2151 37.2882C46.905 37.5983 46.4196 37.9626 46.1499 38.0975C45.8669 38.2324 42.6977 39.0417 39.0967 39.8914L32.5561 41.4426L25.9208 39.8643C18.7599 38.1782 18.4498 38.0704 17.6544 37.0455C16.9125 36.061 16.9125 36.0207 16.9125 28.6574V21.8609L15.8202 19.946C15.2132 18.894 14.6876 17.9908 14.6604 17.9234C14.6333 17.8691 22.6842 17.8288 32.5561 17.8288C42.4279 17.8288 50.4781 17.8685 50.4517 17.9227Z" fill="black"/>
</svg>

<svg width="65" height="61" fill="none" xmlns="http://www.w3.org/2000/svg"><path d="M22.131.378c-4.315.89-9.143 3.169-12.434 5.853C4.843 10.195 1.323 16.965.23 24.422c-.283 1.956-.31 6.285-.053 8.106.903 6.432 4.261 12.798 9.4 17.814 3.708 3.601 7.457 5.974 11.18 7.053 2.157.634 11.408 3.075 11.664 3.075.472.013 11.908-3.074 13.297-3.6 2.94-1.106 6.42-3.494 9.548-6.528 4.355-4.248 7.376-9.332 8.725-14.659 1.066-4.248 1.079-9.386.027-14.079-.93-4.167-2.873-8.442-5.3-11.665C54.97 4.963 48.55 1.27 41.767.162L40.797 0l-.756.58c-.418.31-.702.607-.647.66.054.055.445.216.85.338 1.307.431 3.87 1.631 5.569 2.63 6.473 3.775 10.896 9.25 12.77 15.764 1.754 6.068 1.268 11.921-1.415 17.275-4.02 8.011-12.65 14.12-21.645 15.32-4.841.648-9.75-.242-14.632-2.642C12.665 45.879 6.906 38.69 5.517 30.707c-1.079-6.244.715-13.31 4.801-18.813 1.038-1.402 3.332-3.776 4.774-4.949 2.55-2.063 6.136-4.113 9.036-5.178.674-.243 1.267-.486 1.321-.526.122-.108-1.308-1.214-1.55-1.2-.095 0-.89.148-1.768.337z" fill="#000"/><path d="M21.524 14.929c-5.798.687-10.6 1.281-10.653 1.308-.067.027.634 1.416 1.551 3.101l1.672 3.062.594 6.244c.324 3.439.66 6.58.755 6.985.377 1.834 1.577 3.614 2.845 4.262 1.43.728 6.446 2.414 11.975 4.019.93.283 1.82.566 1.996.647.216.108.378.108.607 0 .162-.08 1.753-.58 3.534-1.106 4.18-1.24 8.078-2.549 9.655-3.222 2.01-.863 3.008-2.118 3.56-4.478.123-.472.486-3.668.81-7.107l.593-6.244 1.672-3.061c.918-1.685 1.66-3.075 1.646-3.088-.04-.055-21.726-2.603-22.01-2.59-.134.013-4.989.58-10.802 1.268zm28.928 2.994c-.04.067-.553.97-1.16 2.036L48.2 21.888v6.783c0 7.646 0 7.592-.985 8.617-.31.31-.795.675-1.065.81-.283.134-3.452.944-7.053 1.793l-6.54 1.552-6.636-1.579c-7.161-1.686-7.471-1.794-8.267-2.819-.741-.984-.741-1.024-.741-8.388v-6.796l-1.093-1.915c-.607-1.052-1.132-1.955-1.16-2.023-.027-.054 8.024-.094 17.896-.094 9.872 0 17.922.04 17.896.094z" fill="#000"/></svg>
